X: 34577
T: Rising Of The Sun, The
R: hornpipe
M: 4/4
K: Dmajor
|:fe|d2 FB A2 FA|Bdeg fBcA|d2 FB A2 FD|EGGE Dgge|
d2 FB A2 FA|Bdeg fage|d2 FB A2 FA|Bd ec d2:|
|:A2|d2 fg afed|cAeA fAeA|defg a2 fd|cABc d2 Ac|
[1 defg a2 fd|cAeA fAeA|d2 fg abag|fAeA d2:|
[2 d2 fg afed|cAeA fA e2|dffd egge|fgfe d2||

